public/mascots/dropout/bear-late-registration-128x128.svg

<svg xmlns="http://www.w3.org/2000/svg" width="128" height="128" viewBox="0 0 128 128"><defs><linearGradient id="a" x1="0%" x2="100%" y1="0%" y2="100%"><stop offset="0%" style="stop-color:#8b4513"/><stop offset="100%" style="stop-color:#654321"/></linearGradient><linearGradient id="b" x1="0%" x2="0%" y1="0%" y2="100%"><stop offset="0%" style="stop-color:#8b7355"/><stop offset="100%" style="stop-color:#5c4033"/></linearGradient></defs><circle cx="40" cy="32" r="16" fill="url(#a)"/><circle cx="88" cy="32" r="16" fill="url(#a)"/><ellipse cx="64" cy="48" fill="url(#a)" rx="32" ry="28"/><ellipse cx="64" cy="56" fill="#deb887" rx="16" ry="12"/><ellipse cx="64" cy="52" fill="#333" rx="6" ry="5"/><path fill="none" stroke="#333" stroke-width="2" d="M46 44q6-4 12 0M70 44q6-4 12 0"/><path fill="none" stroke="#654321" stroke-width="2" d="m56 22 4-6 4 6 4-6 4 6"/><path fill="url(#b)" d="M40 72q0-12 24-16 24 4 24 16 0 32-24 40-24-8-24-40"/><path stroke="#5c4033" stroke-width="2" d="M64 64v40"/><path fill="peru" d="m48 64 16 12 16-12"/><ellipse cx="36" cy="84" fill="url(#b)" rx="8" ry="12"/><ellipse cx="92" cy="84" fill="url(#b)" rx="8" ry="12"/></svg>

<svg xmlns="http://www.w3.org/2000/svg" viewBox="0 0 128 128" width="128" height="128">
  <defs>
    <linearGradient id="lrBearBrown128" x1="0%" y1="0%" x2="100%" y2="100%">
      <stop offset="0%" style="stop-color:#8B4513"/>
      <stop offset="100%" style="stop-color:#654321"/>
    </linearGradient>
    <linearGradient id="lrBearJacket128" x1="0%" y1="0%" x2="0%" y2="100%">
      <stop offset="0%" style="stop-color:#8B7355"/>
      <stop offset="100%" style="stop-color:#5C4033"/>
    </linearGradient>
  </defs>
  
  <circle cx="40" cy="32" r="16" fill="url(#lrBearBrown128)"/>
  <circle cx="88" cy="32" r="16" fill="url(#lrBearBrown128)"/>
  
  <ellipse cx="64" cy="48" rx="32" ry="28" fill="url(#lrBearBrown128)"/>
  <ellipse cx="64" cy="56" rx="16" ry="12" fill="#DEB887"/>
  <ellipse cx="64" cy="52" rx="6" ry="5" fill="#333"/>
  
  <!-- Tired eyes -->
  <path d="M46 44 Q52 40 58 44" stroke="#333" stroke-width="2" fill="none"/>
  <path d="M70 44 Q76 40 82 44" stroke="#333" stroke-width="2" fill="none"/>
  
  <!-- Messy hair tuft -->
  <path d="M56 22 L60 16 L64 22 L68 16 L72 22" fill="none" stroke="#654321" stroke-width="2"/>
  
  <path d="M40 72 Q40 60 64 56 Q88 60 88 72 Q88 104 64 112 Q40 104 40 72Z" fill="url(#lrBearJacket128)"/>
  <line x1="64" y1="64" x2="64" y2="104" stroke="#5C4033" stroke-width="2"/>
  
  <!-- Polo collar -->
  <path d="M48 64 L64 76 L80 64" fill="#CD853F"/>
  
  <ellipse cx="36" cy="84" rx="8" ry="12" fill="url(#lrBearJacket128)"/>
  <ellipse cx="92" cy="84" rx="8" ry="12" fill="url(#lrBearJacket128)"/>
</svg>
